X: 4
T: Mayor Harrison's Fedora
R: reel
M: 4/4
L: 1/8
K: Edor
|:F|G2GF GABc|dBAG FADA|Beed efga|(3gfe df e3c|~d3B A3F|GFEF GABc|dedB AGFA GEFD ~E3:|


Tune 367	Setting 367

